assets/images/icons/contact.svg

<svg width="18" height="16" viewBox="0 0 18 16" fill="none" xmlns="http://www.w3.org/2000/svg">
<path opacity="0.5" d="M13.7766 0.5H9.77661C7.84691 0.5 6.27661 2.0703 6.27661 4C6.27661 5.76027 7.58278 7.2212 9.27661 7.46437V9C9.27661 9.20213 9.39818 9.38477 9.58521 9.4619C9.76964 9.53887 9.98598 9.4976 10.1301 9.3535L11.9836 7.5H13.7766C15.7063 7.5 17.3099 5.9297 17.3099 4C17.3099 2.0703 15.7063 0.5 13.7766 0.5ZM9.77661 4.49993C9.50041 4.49993 9.27661 4.27607 9.27661 3.99993C9.27661 3.7238 9.50041 3.49993 9.77661 3.49993C10.0527 3.49993 10.2766 3.7238 10.2766 3.99993C10.2766 4.27607 10.0527 4.49993 9.77661 4.49993ZM11.7766 4.49993C11.5004 4.49993 11.2766 4.27607 11.2766 3.99993C11.2766 3.7238 11.5004 3.49993 11.7766 3.49993C12.0527 3.49993 12.2766 3.7238 12.2766 3.99993C12.2766 4.27607 12.0527 4.49993 11.7766 4.49993ZM13.7766 4.49993C13.5004 4.49993 13.2766 4.27607 13.2766 3.99993C13.2766 3.7238 13.5004 3.49993 13.7766 3.49993C14.0527 3.49993 14.2766 3.7238 14.2766 3.99993C14.2766 4.27607 14.0527 4.49993 13.7766 4.49993Z" fill="#444444"/>
<path d="M11.4766 15.5C12.3038 15.5 12.9766 14.8271 12.9766 14V12C12.9766 11.7847 12.8389 11.5937 12.6348 11.5259L9.64185 10.5259C9.49535 10.4766 9.33522 10.499 9.20632 10.584L7.93385 11.4321C6.58619 10.7895 4.98709 9.1904 4.34449 7.84274L5.19262 6.57027C5.27805 6.44184 5.29955 6.2812 5.25072 6.13474L4.25072 3.14177C4.18289 2.9377 3.99195 2.8 3.77662 2.8H1.74329C0.916153 2.8 0.243286 3.46584 0.243286 4.29297C0.243286 10.0537 5.71589 15.5 11.4766 15.5V15.5Z" fill="#444444"/>
</svg>

<svg width="18" height="16" fill="none" xmlns="http://www.w3.org/2000/svg"><path opacity=".5" d="M13.777.5h-4c-1.93 0-3.5 1.57-3.5 3.5a3.505 3.505 0 0 0 3 3.464V9a.5.5 0 0 0 .853.354L11.984 7.5h1.793c1.93 0 3.533-1.57 3.533-3.5S15.706.5 13.777.5zm-4 4a.5.5 0 1 1 0-1 .5.5 0 0 1 0 1zm2 0a.5.5 0 1 1 0-1 .5.5 0 0 1 0 1zm2 0a.5.5 0 1 1 0-1 .5.5 0 0 1 0 1z" fill="#444"/><path d="M11.477 15.5c.827 0 1.5-.673 1.5-1.5v-2a.5.5 0 0 0-.342-.474l-2.993-1a.5.5 0 0 0-.436.058l-1.272.848c-1.348-.643-2.947-2.242-3.59-3.59l.849-1.272a.5.5 0 0 0 .058-.435l-1-2.993a.5.5 0 0 0-.474-.342H1.743c-.827 0-1.5.666-1.5 1.493 0 5.76 5.473 11.207 11.234 11.207z" fill="#444"/></svg>
